!!!OTL: 421. Hannchen vor Allen.
!!!COM: Jul. Schneider
!!!ODT: 1831
!!!ARE: Europa, Mitteleuropa, Deutschland
!!!SCT: B0421
!!!TXL: @@DE
!!!YEM: Copyright 1995, estate of Helmut Schaffrath.
**kern	**text
*ICvox	*
*Ivox	*
*clefG2	*
*M6/8	*
*k[b-]	*
*F:	*
!LO:TX:a:t=Lustig.	!
{8c	Die
=1	=1
8.a	Mäd-
16g	-chen
8f	in
8f	Deutſchland
8e	.
8f	ſind
=2	=2
8.dd	blü-
16dd	-hend
8dd	und
4cc}	ſchön,
{8cc	ʒum
=3	=3
8dd	Küſ-
8dd	-ſen
8cc	nur
8g	la-
8g	-den
8a	ſie
=4	=4
!LO:N:vis=4	!
4.f	ein.
4r}	.
{8c	Und
=5	=5
8.a	wenn
16g	ſie
8f	im
8f	rei-
8e	-ʒen-
8f	-den
=6	=6
8.dd	Wir-
16dd	-bel
8dd	ſich
4cc}	drehn,
{8cc	ſo
=7	=7
8dd	rüh-
8dd	-ren
8cc	ſie
8g	Her-
8g	-ʒen
8a	von
=8	=8
!LO:N:vis=4	!
4.f	Stein.
4r}	.
{8a	Doch
=9	=9
8g	die
8a	mir
8bn	vor
8cc	al-
8g	-len
8g	am
=10	=10
8g	beſ-
8a	-ten
8bn	ge-
4cc;}	-fällt,
{8cc	iſt
=11	=11
!LO:TX:a:t=Sprechend und zunehmend schneller.	!
8cc	Hann-
8cc	-chen,
8cc	lieb
8cc	Hannchen,
8cc	.
8cc	ſchön
=12	=12
8cc	Hann-
8cc	-chen,
8cc	mein
8cc	Hann-
8cc}	-chen,
{8cc	ja
=13	=13
8cc	Hannchen,
8a	.
8f	nur
8dd;	Hann-
8cc	-chen
8e	al-
=14	=14
4.f	-lein.
4r}	.
==	==
!!!AGN: Liebes - Lied, Liebes - Lust, national
!!!GTL: Liebeslieder - Liebeslust
!!!ONB: ESAC (Essen Associative Code) Database: BOEHME
!!!AMT: compound duple
!!!AIN: vox
!!!EED: Helmut Schaffrath
!!!EEV: 1.0
!!Mel. v. Jul. Schneider. 1831.
!!@@COMMENT:"Der Text ſteht in Wilh. Gerhard's Gedichten" I. Bd. Leipʒig 1826. S. 103; dort mit der
!!Jahrʒahl 1818. Auch gedruckt in Huldigung der Frauen". Ein Taſchenb. für 1828 von F. J.
!!Caſtelli. Wien - Die Mel. hat Julius Schneider, K. Muſikdit. in Berlin, 1831 komponirt. -
!!Mit dieſer Melodie wurde das Lied eingelegt in das Luſtſpiel "Der reiſende Student" von Louis
!!Schneider (um 1840) und dadurch weit bekannt und beliebt. - Dieſes Lied erinnert an Walther's
!!Lob der deutſchen Sitte und deutſchen Frauen:"
!!@@END:
!!!URL-scan: https://archive.org/details/BoehmeVtLieder1895/page/n345/mode/2up
!!!ENC: Anna Maria Matuszewska
!!!EEV: 2024/08/07
*-	*-
